X: 12
T: Da mihi Manum
T: Give me your Hand
%R: waltz, air
B: "The Hibernian Muse" p.8 #1
F: http://imslp.org/wiki/The_Hibernian_Muse_%28Various%29
Z: 2015 John Chambers <jc:trillian.mit.edu>
P: No. XII.
M: 6/4
L: 1/4
K: G
% - - - - - - - - - - - - - - - - - - - - - - - - - - - - -
V: 1
D |\
DGG TG2D | EGG TG2D | EGG GAB | Bed TB2A/G/ | AAe BBd | A>BA/G/ TE2D | EGG g2D | EGG Tg2D | EGG gab |
d>ba/b/ g2D | DGG GAB | Bed B2A/G/ | AAe BBd | ABd Te2d/B/ | dde g2e/d/ | eeg a2g/e/ | ggd/e/ ggd/e/ | gga b3 |
bbb b2a/g/ | a/g/a/b/a/b/ a2g | eeg/e/ dde/d/ | BBd/B/ TA2G | GGB/d/ =f2e/d/ | eeg e2d/c/ | ddg BBd | A>BA/G/ E2D |]
% - - - - - - - - - - - - - - - - - - - - - - - - - - - - -
V: 2 clef=bass middle=d
z |\
zgg g2z | zee e2z | zgg gfg | G3 g3 | c3 A3 | d3 g2G | zzd egz | zzd egz |
zzd gab | d3 G2z | zBd gdB | G3 g3 | c3 g3 | d3 g2G | zgg gGz | zee dDz | gGz gGz |
zBd g3 | zgg gGz | zdd dDz | cc'c BbB | GgG d2G | zBd BGB | c2z cc'c | BbB GgG | d3 g2G |]

%%sep 2 1 500
%%sep 1 1 500

